docs/assets/icons/nvidia.svg

<?xml version="1.0" encoding="UTF-8"?>
<svg role="img" version="1.1" viewBox="0 0 24 16" xmlns="http://www.w3.org/2000/svg"><title>NVIDIA</title><path d="m8.948 4.798v-1.43a6.7 6.7 0 01.424-.018c3.922-.124 6.493 3.374 6.493 3.374s-2.774 3.851-5.75 3.851c-.398 0-.787-.062-1.158-.185v-4.346c1.528.185 1.837.857 2.747 2.385l2.04-1.714s-1.492-1.952-4-1.952a6.016 6.016 0 00-.796.035m0-4.735v2.138l.424-.027c5.45-.185 9.01 4.47 9.01 4.47s-4.08 4.964-8.33 4.964c-.37 0-.733-.035-1.095-.097v1.325c.3.035.61.062.91.062 3.957 0 6.82-2.023 9.593-4.408.459.371 2.34 1.263 2.73 1.652-2.633 2.208-8.772 3.984-12.253 3.984-.335 0-.653-.018-.971-.053v1.864h15.034v-15.874zm0 10.326v1.131c-3.657-.654-4.673-4.46-4.673-4.46s1.758-1.944 4.673-2.262v1.237h-.008c-1.528-.186-2.73 1.245-2.73 1.245s.68 2.412 2.739 3.11m-6.493-3.49s2.164-3.197 6.5-3.533v-1.166c-4.803.389-8.956 4.452-8.956 4.452s2.35 6.802 8.948 7.42v-1.237c-4.84-.6-6.492-5.936-6.492-5.936z" fill="#76b900"/></svg>

<?xml version="1.0" encoding="UTF-8" standalone="no"?>
<svg
   role="img"
   viewBox="0 0 24 16"
   version="1.1"
   id="svg1"
   sodipodi:docname="nvidia.svg"
   width="24"
   height="16"
   inkscape:version="1.4.3 (0d15f75042, 2025-12-25)"
   xmlns:inkscape="http://www.inkscape.org/namespaces/inkscape"
   xmlns:sodipodi="http://sodipodi.sourceforge.net/DTD/sodipodi-0.dtd"
   xmlns="http://www.w3.org/2000/svg"
   xmlns:svg="http://www.w3.org/2000/svg"
   xmlns:rdf="http://www.w3.org/1999/02/22-rdf-syntax-ns#"
   xmlns:cc="http://creativecommons.org/ns#"
   xmlns:dc="http://purl.org/dc/elements/1.1/">
  <defs
     id="defs1" />
  <sodipodi:namedview
     id="namedview1"
     pagecolor="#505050"
     bordercolor="#ffffff"
     borderopacity="1"
     inkscape:showpageshadow="0"
     inkscape:pageopacity="0"
     inkscape:pagecheckerboard="1"
     inkscape:deskcolor="#505050"
     inkscape:zoom="48.333333"
     inkscape:cx="12"
     inkscape:cy="9.5172414"
     inkscape:window-width="2560"
     inkscape:window-height="1368"
     inkscape:window-x="0"
     inkscape:window-y="0"
     inkscape:window-maximized="1"
     inkscape:current-layer="svg1" />
  <title
     id="title1">NVIDIA</title>
  <path
     fill="#76b900"
     d="M 8.948,4.798 V 3.368 A 6.7,6.7 0 0 1 9.372,3.35 c 3.922,-0.124 6.493,3.374 6.493,3.374 0,0 -2.774,3.851 -5.75,3.851 -0.398,0 -0.787,-0.062 -1.158,-0.185 V 6.044 c 1.528,0.185 1.837,0.857 2.747,2.385 l 2.04,-1.714 c 0,0 -1.492,-1.952 -4,-1.952 A 6.016,6.016 0 0 0 8.948,4.798 m 0,-4.735 V 2.201 L 9.372,2.174 c 5.45,-0.185 9.01,4.47 9.01,4.47 0,0 -4.08,4.964 -8.33,4.964 -0.37,0 -0.733,-0.035 -1.095,-0.097 v 1.325 c 0.3,0.035 0.61,0.062 0.91,0.062 3.957,0 6.82,-2.023 9.593,-4.408 0.459,0.371 2.34,1.263 2.73,1.652 -2.633,2.208 -8.772,3.984 -12.253,3.984 -0.335,0 -0.653,-0.018 -0.971,-0.053 v 1.864 H 24 V 0.063 Z m 0,10.326 V 11.52 C 5.291,10.866 4.275,7.06 4.275,7.06 c 0,0 1.758,-1.944 4.673,-2.262 V 6.035 H 8.94 C 7.412,5.849 6.21,7.28 6.21,7.28 c 0,0 0.68,2.412 2.739,3.11 M 2.456,6.9 c 0,0 2.164,-3.197 6.5,-3.533 V 2.201 C 4.153,2.59 0,6.653 0,6.653 c 0,0 2.35,6.802 8.948,7.42 V 12.836 C 4.108,12.236 2.456,6.9 2.456,6.9 Z"
     id="path1" />
  <metadata
     id="metadata1">
    <rdf:RDF>
      <cc:Work
         rdf:about="">
        <dc:title>NVIDIA</dc:title>
      </cc:Work>
    </rdf:RDF>
  </metadata>
</svg>
